X: 070901
T: Green Forest
S: "First Collection of Traditional Irish Music" (M.Mulvihill)
Z: B.Black
L: 1/8
M: 6/8
R: jig
K: G
g/e/|dBG GAG|GBd efg|dBG GBd|ecA ABc|
dBG EFG|DGB ABc|ded cAF|AGF G2 :|
B/d/|gfg GBd|gbg afd|gfg Bcd|ecA A2 f|
gfe ded|cBc ABc|ded cAF|AGF G2 :|
